mobile/apps/auth/assets/custom-icons/icons/proton_calendar.svg

<svg xmlns="http://www.w3.org/2000/svg" fill="none" viewBox="0 0 918 754"><g clip-path="url(#a)"><path fill="url(#b)" fill-rule="evenodd" d="M649.27 113.046H.227v546.898c0 52.034 42.495 94.173 94.96 94.173h485.451-163.591v-43.872a93.68 93.68 0 0 1 22.652-61.053l167.27-194.683v.097c-.098.095-.195.287-.388.383 19.36-21.983 47.819-35.807 79.473-35.807h36.978v-232.89c.096-40.415-32.912-73.246-73.762-73.246Z" clip-rule="evenodd"/><path fill="#B8D7FF" fill-rule="evenodd" d="M607.065 454.609c-16.457 18.431-26.426 42.718-26.426 69.214l-.001 230.294H417.047v-43.872a93.68 93.68 0 0 1 22.652-61.053l167.27-194.683.096.1Z" clip-rule="evenodd"/><path fill="#8F69FF" d="M673.082 634.504h33.396c1.355 5.76 4.743 10.848 9.583 14.399a25.765 25.765 0 0 0 16.65 5.088c15.101 0 25.071-8.256 25.071-20.351 0-12.096-10.357-18.816-30.879-18.816h-13.262v-27.263h11.52c19.844 0 27.974-7.296 27.974-18.143 0-10.849-8.808-18.336-21.004-18.336-5.422-.288-10.842 1.44-14.908 4.992-4.162 3.551-6.679 8.543-7.163 13.92h-32.234c1.161-19.008 16.262-46.271 54.111-46.271 30.395 0 51.4 17.183 51.4 41.374 0 7.776-2.42 15.36-7.066 21.6-4.646 6.24-11.132 10.943-18.586 13.247v.48c8.712 1.536 16.553 6.144 22.071 12.96a36.474 36.474 0 0 1 8.131 24.192c0 26.207-24.2 43.487-55.466 43.487-33.202.191-56.918-18.528-59.339-46.559ZM846.257 526.328h24.295v152.54h-31.361v-117.02l-30.202 20.351v-30.816l37.268-25.055Z"/><path fill="url(#c)" fill-rule="evenodd" d="M95.187.544h728.226c52.466 0 94.961 42.142 94.961 94.173V419.19H723.128v-232.89c0-40.511-33.105-73.253-73.858-73.253H.227V94.717C.227 42.687 42.722.544 95.187.544Z" clip-rule="evenodd"/></g><defs><radialGradient id="b" cx="0" cy="0" r="1" gradientTransform="matrix(1874.62 0 0 1592.06 883.262 -628.134)" gradientUnits="userSpaceOnUse"><stop offset=".556" stop-color="#6D4AFF"/><stop offset=".994" stop-color="#06B8FF"/></radialGradient><linearGradient id="c" x1="771.551" x2="203.726" y1="515.649" y2="-273.993" gradientUnits="userSpaceOnUse"><stop stop-color="#BFE8FF"/><stop offset=".307" stop-color="#BFABFF"/><stop offset="1" stop-color="#7341FF"/></linearGradient><clipPath id="a"><path fill="#fff" d="M0 0h918v754H0z"/></clipPath></defs></svg>

<svg width="918" height="754" viewBox="0 0 918 754" fill="none" xmlns="http://www.w3.org/2000/svg">
<g clip-path="url(#clip0_11864_192587)">
<path fill-rule="evenodd" clip-rule="evenodd" d="M649.27 113.046H0.226562V659.944C0.226562 711.978 42.7217 754.117 95.1872 754.117H580.638H417.047V710.245C417.047 687.879 425.081 666.184 439.699 649.192L606.969 454.509V454.606C606.871 454.701 606.774 454.893 606.581 454.989C625.941 433.006 654.4 419.182 686.054 419.182H723.032V186.292C723.128 145.877 690.12 113.046 649.27 113.046Z" fill="url(#paint0_radial_11864_192587)"/>
<path fill-rule="evenodd" clip-rule="evenodd" d="M607.065 454.609C590.608 473.04 580.639 497.327 580.639 523.823L580.638 754.117H417.047V710.245C417.047 687.879 425.081 666.184 439.699 649.192L606.969 454.509L607.065 454.609Z" fill="#B8D7FF"/>
<path d="M673.082 634.504H706.478C707.833 640.264 711.221 645.352 716.061 648.903C720.804 652.455 726.709 654.279 732.711 653.991C747.812 653.991 757.782 645.735 757.782 633.64C757.782 621.544 747.425 614.824 726.903 614.824H713.641V587.561H725.161C745.005 587.561 753.135 580.265 753.135 569.418C753.135 558.569 744.327 551.082 732.131 551.082C726.709 550.794 721.289 552.522 717.223 556.074C713.061 559.625 710.544 564.617 710.06 569.994H677.826C678.987 550.986 694.088 523.723 731.937 523.723C762.332 523.723 783.337 540.906 783.337 565.097C783.337 572.873 780.917 580.457 776.271 586.697C771.625 592.937 765.139 597.64 757.685 599.944V600.424C766.397 601.96 774.238 606.568 779.756 613.384C785.273 620.2 788.177 628.743 787.887 637.576C787.887 663.783 763.687 681.063 732.421 681.063C699.219 681.254 675.503 662.535 673.082 634.504Z" fill="#8F69FF"/>
<path d="M846.257 526.328H870.552V678.868H839.191V561.848L808.989 582.199V551.383L846.257 526.328Z" fill="#8F69FF"/>
<path fill-rule="evenodd" clip-rule="evenodd" d="M95.1872 0.543945H823.413C875.879 0.543945 918.374 42.6864 918.374 94.7173V419.189H723.128V186.299C723.128 145.788 690.023 113.046 649.27 113.046H0.226562V94.7173C0.226562 42.6864 42.7217 0.543945 95.1872 0.543945Z" fill="url(#paint1_linear_11864_192587)"/>
</g>
<defs>
<radialGradient id="paint0_radial_11864_192587" cx="0" cy="0" r="1" gradientUnits="userSpaceOnUse" gradientTransform="translate(883.262 -628.134) scale(1874.62 1592.06)">
<stop offset="0.5563" stop-color="#6D4AFF"/>
<stop offset="0.9944" stop-color="#06B8FF"/>
</radialGradient>
<linearGradient id="paint1_linear_11864_192587" x1="771.551" y1="515.649" x2="203.726" y2="-273.993" gradientUnits="userSpaceOnUse">
<stop stop-color="#BFE8FF"/>
<stop offset="0.3075" stop-color="#BFABFF"/>
<stop offset="1" stop-color="#7341FF"/>
</linearGradient>
<clipPath id="clip0_11864_192587">
<rect width="918" height="754" fill="white"/>
</clipPath>
</defs>
</svg>
